!!!OTL: HOERT IHR LEUT UND LASST EUCH SAGEN
!!!ARE: Europa, Mitteleuropa, Deutschland
!!!SCT: E1580A
!!!YEM: Copyright 1995, estate of Helmut Schaffrath.
**kern
*ICvox
*Ivox
*M4/4
*k[b-e-a-]
*E-:
=1
{4e-
4e-
4b-
4b-
=2
4a-
4a-
4g
4g}
=3
{4ee-
4ee-
4dd
4dd
=4
4cc
4cc
4b-
4b-}
=5
{4b-
4b-
4ee-
4b-
=6
4cc
4b-
2g}
=7
{4b-
4b-
4a-
4g
=8
4f
4f
2e-}
==
!!!AGN: Staende - Lied, Nachtwaechter; geistlich, Choral
!!!ONB: ESAC (Essen Associative Code) Database: ERK3
!!!AMT: simple quadruple
!!!AIN: vox
!!!EED: Helmut Schaffrath
!!!EEV: 1.0
*-
